X:4
T:Halling efter Per Löf
T:Halling fr{\aa}n Ekshärad
R:halling
O:Värmland, Ekshärad
Z:id:hn-halling-4
M:2/4
L:1/8
K:Ddor
A/a/g/b/ a2 | a/g/e/g/ f>e | fa/g/ eg/f/ | d/f/e/d/ ^cA- |
A/a/g/b/ a2 | a/g/e/g/ f>e | fa/g/ eg/f/ | d/f/e/^c/ d2 :|
|: Ad/^c/ de- | ef/e/ fe/^c/ | Ad/^c/ de/g/ | f/e/d/^c/ dA/F/ |
Dd/^c/ de- | ef/e/ fe/^c/ | Ad/^c/ de/g/ | f/e/d/^c/ d2 :|
This file contains 1 g{\aa}ngl{\aa}t (#1).
You can find more abc tune files at http://www.norbeck.nu/abc/
Last updated 1 May 2019.
(c) Copyright 2002-2019 Henrik Norbeck. This file:
- May be distributed with restrictions below.
- May not be used for commercial purposes (such as printing a tune book to sell).
- This file (or parts of it) may not be made available on a web page for
download without permission from me.
- This copyright notice must be kept, except when e-mailing individual tunes.
- May be printed on paper for personal use.
- Questions? E-mail: henrik@norbeck.nu
Z:id:hn-ganglat-%X

